X:162
T: Guan deng
N: C1658
O: China, Henan, jiaozuo
S: IV, 149]
R: Xiaodiao, Keguazi diao]
M: 2/4
L: 1/16
K: G
d4B2A2 | d4B2A2 | d2dBd2EG | A6B2 | A8
d4B2A2 | d4B2A2 | d2dBd2EG | A6B2 | A8
A2B2A2B2 | E2A2G4 | G2ABA2GE | D6E2 | D8
B2BABAG2 | A8 | BdBAG2dB | A8
A2B2A2B2 | e2BAG4 | G2ABAGE2 | D6EG | D8

